X: 3519
T: Bidh Eoin
R: strathspey
M: 4/4
K: Bminor
|:B>c|d>cB<A F2 E>F|A2 A>B c<AA>c|d>cB<A F2 E>F|f<ed>c B2:|
|:(3ABc|(3ddd d>f (3eee e>f|1 d2 d>f e<cA>c|d2 d>f e>^de>g|f<ed>c B2:|
[2 d2 d>f e<c A2|B>^AB>c d>cd>b|a<fe>c B2||

